src/img/icons/chevron-left.svg

<svg fill="none" height="22" viewBox="0 0 13 22" width="13" xmlns="http://www.w3.org/2000/svg"><path d="m11 21.5c-.4219 0-.7969-.1406-1.07812-.4219l-9.000005-9c-.609375-.5625-.609375-1.5469 0-2.10935l9.000005-9c.56252-.609375 1.54692-.609375 2.10932 0 .6094.5625.6094 1.54687 0 2.10937l-7.92182 7.92188 7.92182 7.9688c.6094.5624.6094 1.5468 0 2.1093-.2812.2813-.6562.4219-1.0312.4219z" fill="#000"/></svg>

<svg width="13" height="22" viewBox="0 0 13 22" fill="none" xmlns="http://www.w3.org/2000/svg">
<path d="M11 21.5C10.5781 21.5 10.2031 21.3594 9.92188 21.0781L0.921875 12.0781C0.3125 11.5156 0.3125 10.5312 0.921875 9.96875L9.92188 0.96875C10.4844 0.359375 11.4688 0.359375 12.0312 0.96875C12.6406 1.53125 12.6406 2.51562 12.0312 3.07812L4.10938 11L12.0312 18.9688C12.6406 19.5312 12.6406 20.5156 12.0312 21.0781C11.75 21.3594 11.375 21.5 11 21.5Z" fill="black"/>
</svg>
